public/svgs/regular/address-card.svg

<svg xmlns="http://www.w3.org/2000/svg" viewBox="0 0 576 512"><!-- Font Awesome Pro 6.0.0-alpha2 by @fontawesome - https://fontawesome.com License - https://fontawesome.com/license (Commercial License) --><path d="M208 256C243.346 256 272 227.346 272 192C272 156.652 243.346 128 208 128S144 156.652 144 192C144 227.346 172.654 256 208 256ZM464 232H368C354.75 232 344 242.75 344 256S354.75 280 368 280H464C477.25 280 488 269.25 488 256S477.25 232 464 232ZM240 288H176C131.816 288 96 323.816 96 368C96 376.836 103.164 384 112 384H304C312.836 384 320 376.836 320 368C320 323.816 284.184 288 240 288ZM464 152H368C354.75 152 344 162.75 344 176S354.75 200 368 200H464C477.25 200 488 189.25 488 176S477.25 152 464 152ZM512 32H64C28.654 32 0 60.654 0 96V416C0 451.346 28.654 480 64 480H512C547.346 480 576 451.346 576 416V96C576 60.654 547.346 32 512 32ZM528 416C528 424.822 520.822 432 512 432H64C55.178 432 48 424.822 48 416V96C48 87.178 55.178 80 64 80H512C520.822 80 528 87.178 528 96V416Z"/></svg>

<svg xmlns="http://www.w3.org/2000/svg" viewBox="0 0 576 512"><!--! Font Awesome Pro 6.5.1 by @fontawesome - https://fontawesome.com License - https://fontawesome.com/license (Commercial License) Copyright 2023 Fonticons, Inc. --><path d="M512 80c8.8 0 16 7.2 16 16V416c0 8.8-7.2 16-16 16H64c-8.8 0-16-7.2-16-16V96c0-8.8 7.2-16 16-16H512zM64 32C28.7 32 0 60.7 0 96V416c0 35.3 28.7 64 64 64H512c35.3 0 64-28.7 64-64V96c0-35.3-28.7-64-64-64H64zM208 256a64 64 0 1 0 0-128 64 64 0 1 0 0 128zm-32 32c-44.2 0-80 35.8-80 80c0 8.8 7.2 16 16 16H304c8.8 0 16-7.2 16-16c0-44.2-35.8-80-80-80H176zM376 144c-13.3 0-24 10.7-24 24s10.7 24 24 24h80c13.3 0 24-10.7 24-24s-10.7-24-24-24H376zm0 96c-13.3 0-24 10.7-24 24s10.7 24 24 24h80c13.3 0 24-10.7 24-24s-10.7-24-24-24H376z"/></svg>
